X: 3236
T: The NEW RIGGED SHIP
%R: jig
B: James Kerr "Merry Melodies" v.3 p.27 #236
Z: 2016 John Chambers <jc:trillian.mit.edu>
M: 6/8
L: 1/8
K: D
uA |\
vd2vd ud2uf | d2d d2f |\
[1 ecA Acd | ecA ABc :|\
[2 ecA ABc | d3 d2 H|]\
f |\
a2f a2f | d2d dfa |\
b2g b2g | e2e efg |\
a2f a2f | d2d d2f |\
efe dcB | A3- A2 |]

%%sep 1 1 500
%%sep 1 1 500

